images/3233405.svg

<?xml version="1.0" encoding="UTF-8"?>
<svg xmlns="http://www.w3.org/2000/svg" xmlns:xlink="http://www.w3.org/1999/xlink" width="300pt" height="300pt" viewBox="0 0 300 300" version="1.1">
<defs>
<g>
<symbol overflow="visible" id="glyph0-0">
<path style="stroke:none;" d="M 0.75 2.65625 L 0.75 -10.578125 L 8.25 -10.578125 L 8.25 2.65625 Z M 1.59375 1.8125 L 7.40625 1.8125 L 7.40625 -9.734375 L 1.59375 -9.734375 Z M 1.59375 1.8125 "/>
</symbol>
<symbol overflow="visible" id="glyph0-1">
<path style="stroke:none;" d="M 1.46875 -10.9375 L 3.46875 -10.9375 L 8.3125 -1.78125 L 8.3125 -10.9375 L 9.75 -10.9375 L 9.75 0 L 7.75 0 L 2.90625 -9.140625 L 2.90625 0 L 1.46875 0 Z M 1.46875 -10.9375 "/>
</symbol>
<symbol overflow="visible" id="glyph0-2">
<path style="stroke:none;" d="M 1.46875 -10.9375 L 2.953125 -10.9375 L 2.953125 -6.453125 L 8.328125 -6.453125 L 8.328125 -10.9375 L 9.8125 -10.9375 L 9.8125 0 L 8.328125 0 L 8.328125 -5.203125 L 2.953125 -5.203125 L 2.953125 0 L 1.46875 0 Z M 1.46875 -10.9375 "/>
</symbol>
</g>
</defs>
<g id="surface31561">
<rect x="0" y="0" width="300" height="300" style="fill:rgb(100%,100%,100%);fill-opacity:1;stroke:none;"/>
<path style="fill:none;stroke-width:1.2;stroke-linecap:butt;stroke-linejoin:miter;stroke:rgb(0%,0%,0%);stroke-opacity:1;stroke-miterlimit:10;" d="M 260.367188 163.378906 L 227.238281 177.449219 "/>
<path style="fill:none;stroke-width:1.2;stroke-linecap:butt;stroke-linejoin:miter;stroke:rgb(0%,0%,0%);stroke-opacity:1;stroke-miterlimit:10;" d="M 264.75 127.652344 L 260.367188 163.378906 "/>
<path style="fill:none;stroke-width:1;stroke-linecap:butt;stroke-linejoin:miter;stroke:rgb(0%,0%,0%);stroke-opacity:1;stroke-miterlimit:10;" d="M 198.488281 155.789062 L 198.488281 155.789062 M 200.535156 157.984375 L 201.160156 157.152344 M 202.578125 160.179688 L 203.835938 158.511719 M 204.625 162.371094 L 206.507812 159.875 M 206.671875 164.566406 L 209.179688 161.234375 M 208.71875 166.761719 L 211.855469 162.597656 M 210.765625 168.953125 L 214.527344 163.957031 M 212.808594 171.148438 L 217.203125 165.320312 M 214.855469 173.34375 L 219.875 166.679688 M 216.902344 175.535156 L 222.546875 168.042969 M 218.949219 177.730469 L 225.222656 169.402344 M 220.992188 179.925781 L 227.894531 170.761719 M 223.039062 182.117188 L 230.570312 172.125 M 223.414062 182.523438 L 231.058594 172.375 "/>
<path style="fill:none;stroke-width:1.2;stroke-linecap:butt;stroke-linejoin:miter;stroke:rgb(0%,0%,0%);stroke-opacity:1;stroke-miterlimit:10;" d="M 198.488281 155.789062 L 190.394531 190.863281 "/>
<path style="fill:none;stroke-width:1.2;stroke-linecap:butt;stroke-linejoin:miter;stroke:rgb(0%,0%,0%);stroke-opacity:1;stroke-miterlimit:10;" d="M 198.488281 155.789062 L 202.871094 120.0625 "/>
<path style="fill:none;stroke-width:1.2;stroke-linecap:butt;stroke-linejoin:miter;stroke:rgb(0%,0%,0%);stroke-opacity:1;stroke-miterlimit:10;" d="M 167.632812 137.257812 L 198.488281 155.789062 "/>
<path style="fill:none;stroke-width:1.2;stroke-linecap:butt;stroke-linejoin:miter;stroke:rgb(0%,0%,0%);stroke-opacity:1;stroke-miterlimit:10;" d="M 190.394531 190.863281 L 154.539062 194.003906 "/>
<path style="fill:none;stroke-width:1.2;stroke-linecap:butt;stroke-linejoin:miter;stroke:rgb(0%,0%,0%);stroke-opacity:1;stroke-miterlimit:10;" d="M 154.539062 194.003906 L 147.503906 177.441406 "/>
<path style="fill:none;stroke-width:1.2;stroke-linecap:butt;stroke-linejoin:miter;stroke:rgb(0%,0%,100%);stroke-opacity:1;stroke-miterlimit:10;" d="M 147.503906 177.441406 L 140.46875 160.875 "/>
<path style="fill:none;stroke-width:1.2;stroke-linecap:butt;stroke-linejoin:miter;stroke:rgb(0%,0%,100%);stroke-opacity:1;stroke-miterlimit:10;" d="M 140.46875 160.875 L 154.050781 149.066406 "/>
<path style="fill:none;stroke-width:1.2;stroke-linecap:butt;stroke-linejoin:miter;stroke:rgb(0%,0%,0%);stroke-opacity:1;stroke-miterlimit:10;" d="M 154.050781 149.066406 L 167.632812 137.257812 "/>
<path style="fill:none;stroke-width:1.2;stroke-linecap:butt;stroke-linejoin:miter;stroke:rgb(0%,0%,100%);stroke-opacity:1;stroke-miterlimit:10;" d="M 140.46875 160.875 L 122.933594 156.828125 "/>
<path style="fill:none;stroke-width:1.2;stroke-linecap:butt;stroke-linejoin:miter;stroke:rgb(0%,0%,0%);stroke-opacity:1;stroke-miterlimit:10;" d="M 122.933594 156.828125 L 105.394531 152.78125 "/>
<path style=" stroke:none;fill-rule:nonzero;fill:rgb(100%,100%,100%);fill-opacity:1;" d="M 135.46875 151.875 L 146.46875 151.875 L 146.46875 169.875 L 135.46875 169.875 Z M 135.46875 151.875 "/>
<g style="fill:rgb(0%,0%,100%);fill-opacity:1;">
  <use xlink:href="#glyph0-1" x="135.46875" y="165.489258"/>
</g>
<path style="fill:none;stroke-width:1.2;stroke-linecap:butt;stroke-linejoin:miter;stroke:rgb(0%,0%,0%);stroke-opacity:1;stroke-miterlimit:10;" d="M 105.394531 152.78125 L 94.867188 118.363281 "/>
<path style="fill:none;stroke-width:1.2;stroke-linecap:butt;stroke-linejoin:miter;stroke:rgb(0%,0%,0%);stroke-opacity:1;stroke-miterlimit:10;" d="M 96.246094 151.816406 L 87.820312 124.28125 "/>
<path style="fill:none;stroke-width:1.2;stroke-linecap:butt;stroke-linejoin:miter;stroke:rgb(0%,0%,100%);stroke-opacity:1;stroke-miterlimit:10;" d="M 80.851562 179.109375 L 93.125 165.945312 "/>
<path style="fill:none;stroke-width:1.2;stroke-linecap:butt;stroke-linejoin:miter;stroke:rgb(0%,0%,0%);stroke-opacity:1;stroke-miterlimit:10;" d="M 93.125 165.945312 L 105.394531 152.78125 "/>
<path style="fill:none;stroke-width:1.2;stroke-linecap:butt;stroke-linejoin:miter;stroke:rgb(0%,0%,0%);stroke-opacity:1;stroke-miterlimit:10;" d="M 94.867188 118.363281 L 59.792969 110.269531 "/>
<path style="fill:none;stroke-width:1.2;stroke-linecap:butt;stroke-linejoin:miter;stroke:rgb(0%,0%,0%);stroke-opacity:1;stroke-miterlimit:10;" d="M 59.792969 110.269531 L 35.25 136.597656 "/>
<path style="fill:none;stroke-width:1.2;stroke-linecap:butt;stroke-linejoin:miter;stroke:rgb(0%,0%,0%);stroke-opacity:1;stroke-miterlimit:10;" d="M 63.535156 118.679688 L 43.898438 139.742188 "/>
<path style="fill:none;stroke-width:1.2;stroke-linecap:butt;stroke-linejoin:miter;stroke:rgb(0%,0%,0%);stroke-opacity:1;stroke-miterlimit:10;" d="M 35.25 136.597656 L 45.777344 171.019531 "/>
<path style="fill:none;stroke-width:1.2;stroke-linecap:butt;stroke-linejoin:miter;stroke:rgb(0%,0%,0%);stroke-opacity:1;stroke-miterlimit:10;" d="M 45.777344 171.019531 L 63.316406 175.066406 "/>
<path style="fill:none;stroke-width:1.2;stroke-linecap:butt;stroke-linejoin:miter;stroke:rgb(0%,0%,100%);stroke-opacity:1;stroke-miterlimit:10;" d="M 63.316406 175.066406 L 80.851562 179.109375 "/>
<path style="fill:none;stroke-width:1.2;stroke-linecap:butt;stroke-linejoin:miter;stroke:rgb(0%,0%,0%);stroke-opacity:1;stroke-miterlimit:10;" d="M 51.191406 163.574219 L 65.21875 166.8125 "/>
<path style="fill:none;stroke-width:1.2;stroke-linecap:butt;stroke-linejoin:miter;stroke:rgb(0%,0%,100%);stroke-opacity:1;stroke-miterlimit:10;" d="M 65.21875 166.8125 L 79.25 170.050781 "/>
<path style=" stroke:none;fill-rule:nonzero;fill:rgb(100%,100%,100%);fill-opacity:1;" d="M 75.851562 170.109375 L 86.851562 170.109375 L 86.851562 188.109375 L 75.851562 188.109375 Z M 75.851562 170.109375 "/>
<g style="fill:rgb(0%,0%,100%);fill-opacity:1;">
  <use xlink:href="#glyph0-1" x="75.851562" y="183.723633"/>
</g>
<path style="fill:none;stroke-width:1.2;stroke-linecap:butt;stroke-linejoin:miter;stroke:rgb(0%,0%,0%);stroke-opacity:1;stroke-miterlimit:10;" d="M 202.871094 120.0625 L 219.433594 113.027344 "/>
<path style="fill:none;stroke-width:1.2;stroke-linecap:butt;stroke-linejoin:miter;stroke:rgb(0%,0%,100%);stroke-opacity:1;stroke-miterlimit:10;" d="M 219.433594 113.027344 L 236 105.996094 "/>
<path style="fill:none;stroke-width:1.2;stroke-linecap:butt;stroke-linejoin:miter;stroke:rgb(0%,0%,100%);stroke-opacity:1;stroke-miterlimit:10;" d="M 236 105.996094 L 250.375 116.824219 "/>
<path style="fill:none;stroke-width:1.2;stroke-linecap:butt;stroke-linejoin:miter;stroke:rgb(0%,0%,0%);stroke-opacity:1;stroke-miterlimit:10;" d="M 250.375 116.824219 L 264.75 127.652344 "/>
<path style=" stroke:none;fill-rule:nonzero;fill:rgb(100%,100%,100%);fill-opacity:1;" d="M 225 96.996094 L 248 96.996094 L 248 114.996094 L 225 114.996094 Z M 225 96.996094 "/>
<g style="fill:rgb(0%,0%,100%);fill-opacity:1;">
  <use xlink:href="#glyph0-1" x="225" y="110.610352"/>
  <use xlink:href="#glyph0-2" x="235.975586" y="110.610352"/>
</g>
</g>
</svg>

<svg xmlns="http://www.w3.org/2000/svg" xmlns:xlink="http://www.w3.org/1999/xlink" width="300pt" height="300pt" viewBox="0 0 300 300"><defs><symbol overflow="visible"><path d="M.75 2.656v-13.234h7.5V2.656zm.844-.844h5.812V-9.733H1.594zm0 0"/></symbol><symbol overflow="visible" id="a"><path d="M1.47-10.938h2L8.31-1.78v-9.158H9.75V0h-2L2.906-9.14V0H1.47zm0 0"/></symbol><symbol overflow="visible" id="b"><path d="M1.47-10.938h1.483v4.485h5.375v-4.484h1.485V0H8.328v-5.203H2.953V0H1.47zm0 0"/></symbol></defs><g><path fill="#fff" d="M0 0h300v300H0z"/><path d="M260.367 163.38l-33.13 14.07M264.75 127.652l-4.383 35.727" stroke-width="1.2" stroke="#000" stroke-miterlimit="10" fill="none"/><path d="M198.488 155.79m2.047 2.194l.625-.832m1.418 3.028l1.258-1.668m.79 3.86l1.882-2.497m.164 4.69l2.508-3.33m-.46 5.527l3.135-4.164m-1.09 6.355l3.762-4.996m-1.718 7.19l4.393-5.827m-2.348 8.024l5.02-6.664m-2.973 8.855l5.645-7.492m-3.598 9.687l6.273-8.328m-4.23 10.524l6.902-9.164m-4.856 11.355l7.53-9.992m-7.156 10.398l7.645-10.148" stroke="#000" stroke-miterlimit="10" fill="none"/><path d="M198.488 155.79l-8.093 35.073M198.488 155.79l4.383-35.727M167.633 137.258l30.855 18.53M190.395 190.863l-35.856 3.14M154.54 194.004l-7.036-16.563" stroke-width="1.2" stroke="#000" stroke-miterlimit="10" fill="none"/><path d="M147.504 177.44l-7.035-16.565M140.47 160.875l13.58-11.81" stroke-width="1.2" stroke="#00f" stroke-miterlimit="10" fill="none"/><path d="M154.05 149.066l13.583-11.808" stroke-width="1.2" stroke="#000" stroke-miterlimit="10" fill="none"/><path d="M140.47 160.875l-17.536-4.047" stroke-width="1.2" stroke="#00f" stroke-miterlimit="10" fill="none"/><path d="M122.934 156.828l-17.54-4.047" stroke-width="1.2" stroke="#000" stroke-miterlimit="10" fill="none"/><path d="M135.47 151.875h11v18h-11zm0 0" fill="#fff"/><use xlink:href="#a" x="135.469" y="165.489" fill="#00f"/><path d="M105.395 152.78l-10.528-34.417M96.246 151.816L87.82 124.28" stroke-width="1.2" stroke="#000" stroke-miterlimit="10" fill="none"/><path d="M80.852 179.11l12.273-13.165" stroke-width="1.2" stroke="#00f" stroke-miterlimit="10" fill="none"/><path d="M93.125 165.945l12.27-13.164M94.867 118.363l-35.074-8.093M59.793 110.27L35.25 136.598M63.535 118.68l-19.637 21.062M35.25 136.598l10.527 34.422M45.777 171.02l17.54 4.046" stroke-width="1.2" stroke="#000" stroke-miterlimit="10" fill="none"/><path d="M63.316 175.066l17.536 4.043" stroke-width="1.2" stroke="#00f" stroke-miterlimit="10" fill="none"/><path d="M51.19 163.574l14.03 3.238" stroke-width="1.2" stroke="#000" stroke-miterlimit="10" fill="none"/><path d="M65.22 166.813l14.03 3.238" stroke-width="1.2" stroke="#00f" stroke-miterlimit="10" fill="none"/><path d="M75.852 170.11h11v18h-11zm0 0" fill="#fff"/><use xlink:href="#a" x="75.852" y="183.724" fill="#00f"/><path d="M202.87 120.063l16.564-7.036" stroke-width="1.2" stroke="#000" stroke-miterlimit="10" fill="none"/><path d="M219.434 113.027l16.566-7.03M236 105.996l14.375 10.828" stroke-width="1.2" stroke="#00f" stroke-miterlimit="10" fill="none"/><path d="M250.375 116.824l14.375 10.828" stroke-width="1.2" stroke="#000" stroke-miterlimit="10" fill="none"/><path d="M225 96.996h23v18h-23zm0 0" fill="#fff"/><g fill="#00f"><use xlink:href="#a" x="225" y="110.61"/><use xlink:href="#b" x="235.976" y="110.61"/></g></g></svg>
